X:92
T:Schottisch 1984
C:Lieven Lepeer, 1984
R:Schottisch
Z:Bert Van Vreckem, 2004-06-03 <http://flanders.blackmill.net/music/>
M:2/4
L:1/8
K:C
zE/F/|Gc cc|d/c/B/A/ GE/F/|GE EF/E/|DG GE/F/|Gc cc|d/c/B/A/ GE/F/|GF ED|C2:|
|:zC/D/|CB, DG|G2-GF/G/|FE Gc|c2 cC/D/|CB, DG|B2-BA|GG AB|[1c2:|[2[EGc]4||
|:c>G EE|FA c2|G/G/G/G/ AB|ce c2|c>G EE|FA c2|G/G/G/G/ AB|c:|
